X:1
T:Title
%%score ( 1 2 ) ( 3 4 )
L:1/8
Q:1/4=95
M:4/4
K:Bb
V:1 treble nm="Grand Piano, Soprano"
V:2 treble 
V:3 bass nm="Choir Pad, He Is Coming in the Clouds"
V:4 bass 
V:1
 [B,D][CE][DF][DF] [DF][DF][EG][DF] | [DB][FA][EG][GB] [FA][EG][EG][DF] | z2 c6 | z2 d6 | %4
w: By~William~Sherman~Tidwell * * * * * * *||||
 [B,D][CE][DF][DF] [DF][DF][EG][DF] | [FB][Fc][Fd][Fd] [Fd][Fd][Ec][DB] | z2 z/ d3/2- d3- d/ z/ | %7
w: |||
 z2 B6 | z2 f2- [Af-]2 [Bf]2 | d2 c<B F>F F<F | [GB]>[EG] [DF]<[DF] E>E D2 | %11
w: ||||
 [B,D][CE][DF][DF] [DF][DF][EG][DF] | [FB][Fc][Fd][Fd] [Fd][Fd][Ec][DB] | z2 z/ d3/2- d3- d/ z/ | %14
w: |||
 z2 B6- | B6 z2 |] %16
w: ||
V:2
 x8 | x8 | [DF][FB]FF =EEF[FA] | [FB][Fc]FB GB F2 | x8 | x8 | [FB][Gc] [Fd]<F =E<E F<F | %7
 [Fd]>[=Ec] D<F G>G F2 | z2 B2 z4 | x8 | x8 | x8 | x8 | [FB][Gc] [Fd]<F =E<E F<F | %14
 [Fd]>[Ec] D<F G>G F2- | F6 z2 |] %16
V:3
 [B,,F,][B,,F,][B,,B,][B,,B,] [B,,B,][B,,B,][B,,B,][B,,B,] | %1
 [B,,F,][D,B,][E,B,][E,B,] [E,B,][E,B,][B,,B,][B,,B,] | %2
 [B,,B,][D,B,][F,A,][F,A,] [G,B,][G,B,][F,A,][E,C] | [D,B,][C,A,] [B,,B,]6 | %4
 [B,,F,][B,,F,][B,,B,][B,,B,] [B,,B,][B,,B,][B,,B,][B,,B,] | [D,B,][F,A,]B,B, B,B,[F,A,][G,B,] | %6
 [D,B,][E,B,] [F,B,]<[F,B,] [G,B,]<[G,B,] [F,B,]<[F,B,] | [F,B,]>[F,A,] B,<[K:treble]D E>E D2 | %8
 z2[K:bass] [B,D]2 [F,C]2[K:treble] [B,D]2 | F2 E<D[K:bass] [D,B,]>[F,C] [B,D]<[B,D] | %10
 [E,E]>[E,B,] [B,,B,]<[D,B,] [C,A,]>[F,A,] [B,,B,]2 | %11
 [B,,F,][B,,F,][B,,B,][B,,B,] [B,,B,][B,,B,][B,,B,][B,,B,] | [D,B,][F,A,]B,B, B,B,[F,A,][G,B,] | %13
 [D,B,][E,B,] [F,B,]<[F,B,] [G,B,]<[G,B,] [F,B,]<[F,B,] | [F,B,]>[F,A,] B,<D E>E D2- | D6 z2 |] %16
V:4
 x8 | x8 | x8 | x8 | x8 | x8 | x8 | z2 B,,6[K:treble] | x2[K:bass] x4[K:treble] x2 | %9
 x4[K:bass] x4 | x8 | x8 | x8 | x8 | z2 B,,6- | B,,6 z2 |] %16

